X:37
T:T023- Reel of Bogie
S:Preston's 24 CD's for 1794
Q:1/4=60
L:1/4
M:C|
K:Am
cc/A/ c/G/G/A/|c3/4d/4c/A/ GG|A/c/d/c/ d/e/f/g/|\
{f/}e d/c/ a G/A/::c(e/8f/8g3/4) c(e/8f/8g3/4)|\
c3/4d/4c/A/ GG|A/c/d/c/ d/e/f/g/|{f/}e d/c/AG/A/:|]

